X: 20
T:Glanbargoed
M:2/2
L:1/8
Q:200
C:Trad
S:Blodau'r Grug Collection Vol. 1
R:Hornpipe
A:Wales
Z:brian_martin12345@yahoo.com
K:D
f2f2e2fe|d2c2B2A2|B2B2cdec|d2c2d4:||
e2e2f2ef|^g2fga2A2|!e2a2=g2f2|e2^d2e4|f2gfe2fe|dfed dcBA|
B2B2cdec|d2c2d4||
